X:1
T:Always Near
T:Always Near
T:D. Hayden Lloyd
T:William N. Meserve, 1879
T:Public Domain Courtesy of the Cyber Hymnal™
T:Public Domain Courtesy of the Cyber Hymnal™
C:D. Hayden Lloyd
Z:Public Domain
Z:Courtesy of the Cyber Hymnal™
%%score ( 1 2 ) ( 3 4 )
L:1/8
Q:1/4=90
M:4/4
K:E
V:1 treble 
V:2 treble 
V:3 bass 
V:4 bass 
V:1
 E>[EF] | [EG]>[EG] [EG][EG] [EG]2 E[EG] | [DF]>[DF] [DF][DF] [DF]2 E>[EG] | %3
w: 1.~Forth He|came, the ris- en Lord, Grand- ly|of His own ac- cord; Ly- ing|
w: 2.~Sound His|prais- es far and wide, Tell of|Je- sus who has died, Trum- pet|
w: 3.~Go to|dis- tant hea- then lands, Val- leys,|jun- gles, burn- ing sands, Free- ly|
w: 4.~Not a-|lone! A might- y friend Shall be|with you to the end, Bless- ing|
 [GB]>[GB] [GB][Ac] ([GB][EG])E[EG] | [DF]>[DB] [E^A][Ec] [DB]2 [EG]>[F=A] | %5
w: lips had dared to say * Thieves had|stol- en Him a- way. Forth He|
w: no un- cer- tain sound, * On the|world’s great bat- tle ground; He’ll o’er-|
w: you have gifts re- ceived, * Tell in|whom you have be- lieved; Quick- ly|
w: you as you shall bless, * Those who|write in sin’s dis- tress; Go and|
 [GB]>[GB] [GB][FA] [EG]2 E[EF] | [EG]>[FA] [EG]>[DF] E2 ||"^Refrain" E>[EG] | [GB]6 [FA]>[EG] | %9
w: came, and His the name, Swells our|song with glad ac- claim.|||
w: throw the fierc- est foe, Ev- er|fall- en man can know.|Al- ways|near, bless- èd|
w: go, let o- thers know, Bless- ings|from the Gos- pel flow.|||
w: teach, a Sav- ior preach, Speak in|love, com- pel, be- seech.|||
 [Ac]6 [ce]>[Bd] | [GB]6 [FA]>[EG] | [DF]6 E>[EG] | [GB]6 [FA]>[EG] | [Ac]6 [Ee]>[Ec] | %14
w: |||||
w: Lord, Need- ed|cheer to af-|ford, Let His|name be a-|dored, Ris- en|
w: |||||
w: |||||
 [EB]3 [EG] [EG]3 [DF] | E6 |] %16
w: ||
w: Je- sus, bless- èd|Lord.|
w: ||
w: ||
V:2
 E3/2 x/ | x6 E x | x6 E3/2 x/ | x6 E x | x8 | x6 E x | x4 E2 || E3/2 x/ | x8 | x8 | x8 | %11
 x6 E3/2 x/ | x8 | x8 | x8 | E6 |] %16
V:3
 [E,G,]>[E,A,] | [E,B,]>[E,B,] [E,B,][E,B,] [E,B,]2 [E,G,][E,B,] | %2
w: ~ ~|~ ~ ~ ~ ~ ~ ~|
 [B,,B,]>[B,,A,] [B,,A,][B,,A,] [B,,A,]2 [E,G,]>[E,B,] | %3
w: ~ ~ ~ ~ ~ ~ ~|
 [E,E]>[E,E] [E,E][E,E] [E,E]2 [E,G,][E,B,] | [F,B,]>[F,B,] [F,C][F,^A,] B,2 [E,B,]>[E,B,] | %5
w: ~ ~ ~ ~ ~ ~ ~|~ ~ ~ ~ ~ ~ ~|
 [E,E]>[E,E] [E,E][E,B,] [E,B,]2 [C,^A,][C,A,] | [B,,B,]>[B,,B,] [B,,B,]>[B,,A,] [E,G,]2 || z2 | %8
w: ~ ~ ~ ~ ~ ~ ~|~ ~ ~ ~ ~||
 z2 [E,E]>[E,E] [E,E]2 z2 | z2 [A,E]>[A,E] [A,E]2 z2 | z2 [E,E]>[E,E] [E,E]2 z2 | %11
w: al- ways near|bless- èd Lord,|need- ed cheer,|
 z2 [B,,B,]>[B,,B,] [B,,B,]2 z2 | z2 [E,E]>[E,E] [E,E]2 z2 | z2 [A,E]>[A,E] [A,E]2 [A,,C]>[A,,A,] | %14
w: to af- ford,|let His name,|be a- dored * *|
 [B,,G,]3 [B,,B,] [B,,B,]3 [B,,A,] | [E,G,]6 |] %16
w: ||
V:4
 x2 | x8 | x8 | x8 | x4 B,2 x2 | x8 | x6 || x2 | x8 | x8 | x8 | x8 | x8 | x8 | x8 | x6 |] %16

